icons/solid/inbox.svg

<svg width="24" height="24" viewBox="0 0 24 24" fill="none" xmlns="http://www.w3.org/2000/svg">
<path fill-rule="evenodd" clip-rule="evenodd" d="M6.91179 3C5.59478 3 4.43177 3.85897 4.04446 5.11774L1.63266 12.9561C1.54472 13.2419 1.5 13.5393 1.5 13.8383V18C1.5 19.6569 2.84315 21 4.5 21H19.5C21.1569 21 22.5 19.6569 22.5 18V13.8383C22.5 13.5393 22.4553 13.2419 22.3673 12.9561L19.9555 5.11774C19.5682 3.85897 18.4052 3 17.0882 3H6.91179ZM20.7345 12.75L18.5219 5.55887C18.3282 4.92948 17.7467 4.5 17.0882 4.5H6.91179C6.25329 4.5 5.67178 4.92948 5.47812 5.55887L3.26547 12.75H6.10942C7.24574 12.75 8.28453 13.392 8.79271 14.4084L9.04894 14.9208C9.30302 15.429 9.82242 15.75 10.3906 15.75H13.6094C14.1776 15.75 14.697 15.429 14.9511 14.9208L15.2073 14.4084C15.7155 13.392 16.7543 12.75 17.8906 12.75H20.7345Z" fill="#0F172A"/>
</svg>

<svg xmlns="http://www.w3.org/2000/svg" viewBox="0 0 24 24" fill="currentColor" aria-hidden="true">
  <path fill-rule="evenodd" d="M6.912 3a3 3 0 00-2.868 2.118l-2.411 7.838a3 3 0 00-.133.882V18a3 3 0 003 3h15a3 3 0 003-3v-4.162c0-.299-.045-.596-.133-.882l-2.412-7.838A3 3 0 0017.088 3H6.912zm13.823 9.75l-2.213-7.191A1.5 1.5 0 0017.088 4.5H6.912a1.5 1.5 0 00-1.434 1.059L3.265 12.75H6.11a3 3 0 012.684 1.658l.256.513a1.5 1.5 0 001.342.829h3.218a1.5 1.5 0 001.342-.83l.256-.512a3 3 0 012.684-1.658h2.844z" clip-rule="evenodd"/>
</svg>
